www/assets/icons/alarm_off.svg

<svg width="24" height="24" viewBox="0 0 24 24" xmlns="http://www.w3.org/2000/svg" fill='currentColor'><path d="M12.175 6.06999C16.045 6.06999 19.175 9.19999 19.175 13.07C19.175 13.91 19.015 14.72 18.745 15.47L20.265 16.99C20.845 15.8 21.175 14.48 21.175 13.07C21.175 8.09999 17.145 4.06999 12.175 4.06999C10.765 4.06999 9.44495 4.39999 8.25495 4.97999L9.77495 6.49999C10.525 6.22999 11.335 6.06999 12.175 6.06999ZM22.175 5.78999L17.575 1.92999L16.285 3.45999L20.885 7.31999L22.175 5.78999ZM3.09495 2.35999L1.82495 3.63999L3.15495 4.96999L2.04495 5.89999L3.46495 7.31999L4.57495 6.37999L5.37495 7.17999C4.00495 8.75999 3.17495 10.82 3.17495 13.07C3.17495 18.04 7.19495 22.07 12.175 22.07C14.425 22.07 16.485 21.24 18.065 19.87L20.265 22.07L21.535 20.8L4.06495 3.33999L3.09495 2.35999ZM16.645 18.46C15.435 19.46 13.875 20.07 12.175 20.07C8.30495 20.07 5.17495 16.94 5.17495 13.07C5.17495 11.37 5.78495 9.80999 6.78495 8.59999L16.645 18.46ZM8.19495 3.34999L6.77495 1.92999L5.91495 2.63999L7.33495 4.05999L8.19495 3.34999Z"/></svg>

<svg xmlns="http://www.w3.org/2000/svg" width="24" height="24" viewBox="0 0 24 24" fill='currentColor'><path d="M12.175 6.07c3.87 0 7 3.13 7 7 0 .84-.16 1.65-.43 2.4l1.52 1.52c.58-1.19.91-2.51.91-3.92a9 9 0 0 0-9-9c-1.41 0-2.73.33-3.92.91l1.52 1.52c.75-.27 1.56-.43 2.4-.43m10-.28-4.6-3.86-1.29 1.53 4.6 3.86zM3.095 2.36l-1.27 1.28 1.33 1.33-1.11.93 1.42 1.42 1.11-.94.8.8a8.96 8.96 0 0 0-2.2 5.89c0 4.97 4.02 9 9 9 2.25 0 4.31-.83 5.89-2.2l2.2 2.2 1.27-1.27L4.065 3.34zm13.55 16.1c-1.21 1-2.77 1.61-4.47 1.61-3.87 0-7-3.13-7-7 0-1.7.61-3.26 1.61-4.47zM8.195 3.35l-1.42-1.42-.86.71 1.42 1.42z"/></svg>
